src/assets/svg/3-login-share-newsletter/4-eye.svg

<svg width="36" height="36" viewBox="0 0 36 36" fill="none" xmlns="http://www.w3.org/2000/svg">
<path d="M18 23.625C19.775 23.625 21.2812 23.0063 22.5187 21.7687C23.7563 20.5312 24.375 19.025 24.375 17.25C24.375 15.475 23.7563 13.9688 22.5187 12.7313C21.2812 11.4938 19.775 10.875 18 10.875C16.225 10.875 14.7188 11.4938 13.4813 12.7313C12.2438 13.9688 11.625 15.475 11.625 17.25C11.625 19.025 12.2438 20.5312 13.4813 21.7687C14.7188 23.0063 16.225 23.625 18 23.625ZM18 21.45C16.825 21.45 15.8313 21.0438 15.0187 20.2313C14.2062 19.4187 13.8 18.425 13.8 17.25C13.8 16.075 14.2062 15.0813 15.0187 14.2687C15.8313 13.4562 16.825 13.05 18 13.05C19.175 13.05 20.1688 13.4562 20.9813 14.2687C21.7938 15.0813 22.2 16.075 22.2 17.25C22.2 18.425 21.7938 19.4187 20.9813 20.2313C20.1688 21.0438 19.175 21.45 18 21.45ZM18 28.5C14.35 28.5 11.05 27.4625 8.1 25.3875C5.15 23.3125 2.95 20.6 1.5 17.25C2.95 13.9 5.15 11.1875 8.1 9.1125C11.05 7.0375 14.35 6 18 6C21.65 6 24.95 7.0375 27.9 9.1125C30.85 11.1875 33.05 13.9 34.5 17.25C33.05 20.6 30.85 23.3125 27.9 25.3875C24.95 27.4625 21.65 28.5 18 28.5ZM18 26.25C21.025 26.25 23.8062 25.4312 26.3438 23.7938C28.8813 22.1562 30.8125 19.975 32.1375 17.25C30.8125 14.525 28.8813 12.3438 26.3438 10.7062C23.8062 9.06875 21.025 8.25 18 8.25C14.975 8.25 12.1938 9.06875 9.65625 10.7062C7.11875 12.3438 5.175 14.525 3.825 17.25C5.175 19.975 7.11875 22.1562 9.65625 23.7938C12.1938 25.4312 14.975 26.25 18 26.25Z" fill="#E9E8E8"/>
</svg>

<svg width="36" height="36" fill="none" xmlns="http://www.w3.org/2000/svg"><path d="M18 23.625c1.775 0 3.281-.619 4.519-1.856 1.237-1.238 1.856-2.744 1.856-4.519s-.619-3.281-1.856-4.519c-1.238-1.237-2.744-1.856-4.519-1.856s-3.281.619-4.519 1.856c-1.237 1.238-1.856 2.744-1.856 4.519s.619 3.281 1.856 4.519c1.238 1.237 2.744 1.856 4.519 1.856Zm0-2.175c-1.175 0-2.169-.406-2.981-1.219-.813-.812-1.219-1.806-1.219-2.981 0-1.175.406-2.169 1.219-2.981.812-.813 1.806-1.219 2.981-1.219 1.175 0 2.169.406 2.981 1.219.813.812 1.219 1.806 1.219 2.981 0 1.175-.406 2.169-1.219 2.981-.812.813-1.806 1.219-2.981 1.219Zm0 7.05c-3.65 0-6.95-1.038-9.9-3.113S2.95 20.6 1.5 17.25c1.45-3.35 3.65-6.063 6.6-8.137C11.05 7.038 14.35 6 18 6c3.65 0 6.95 1.037 9.9 3.113 2.95 2.075 5.15 4.787 6.6 8.137-1.45 3.35-3.65 6.063-6.6 8.137-2.95 2.075-6.25 3.113-9.9 3.113Zm0-2.25c3.025 0 5.806-.819 8.344-2.456 2.537-1.638 4.468-3.819 5.794-6.544-1.325-2.725-3.257-4.906-5.794-6.544C23.806 9.07 21.025 8.25 18 8.25c-3.025 0-5.806.819-8.344 2.456-2.537 1.638-4.481 3.819-5.831 6.544 1.35 2.725 3.294 4.906 5.831 6.544C12.194 25.43 14.975 26.25 18 26.25Z" fill="#E9E8E8"/></svg>
